rospo-newyear-light/symbolic/status/notification-new-symbolic.svg

<svg height="16" width="16" xmlns="http://www.w3.org/2000/svg"><path d="m11.09 1.7012c-2.2133-.74777-4.7058.1365-5.9205 2.2402l-2.25 3.8965-2.73243.7324-.25.4336 1.73243 1.0001 8.6605 5 1.733 1 .25-.434-.733-2.732 1.25-2.164 1-1.7326c.545-.943.731-1.9837.633-2.9863-.152.0241-.305.0488-.463.0488-1.645 0-3-1.355-3-3 0-.4362.099-.8487.273-1.2219 0 0-.181-.0801-.183-.0808zm-7.0884 10.8028c0 .714.38 1.375.998 1.732.6183.356 1.3803.355 1.998-.002z" fill="#5c616c"/><path d="m16 3a2 2 0 0 1 -2 2 2 2 0 0 1 -2-2 2 2 0 0 1 2-2 2 2 0 0 1 2 2z" fill="#5294e2"/></svg>

<svg xmlns="http://www.w3.org/2000/svg" width="16" height="16" version="1.1">
 <path style="fill:#5c616c" d="M 11.09,1.7012 C 8.8767,0.95343 6.3842,1.8377 5.1695,3.9414 L 2.9195,7.8379 0.18707,8.5703 -0.06293,9.0039 1.6695,10.004 10.33,15.004 12.063,16.004 12.313,15.57 11.58,12.838 12.83,10.674 13.83,8.9414 C 14.375,7.9984 14.561,6.9577 14.463,5.9551 14.311,5.9792 14.158,6.0039 14,6.0039 12.355,6.0039 11,4.6489 11,3.0039 11,2.5677 11.099,2.1552 11.273,1.782 11.273,1.782 11.092,1.7019 11.09,1.7012 Z M 4.0016,12.504 C 4.0016,13.218 4.3816,13.879 4.9996,14.236 5.6179,14.592 6.3799,14.591 6.9976,14.234 Z"/>
 <path style="fill:#5294e2" class="warning" d="M 16,3 A 2,2 0 0 1 14,5 2,2 0 0 1 12,3 2,2 0 0 1 14,1 2,2 0 0 1 16,3 Z"/>
</svg>
